resources/assets/img/icons/quote-end.svg

<?xml version="1.0" encoding="UTF-8"?>
<svg width="29px" height="24px" viewBox="0 0 29 24" version="1.1" xmlns="http://www.w3.org/2000/svg" xmlns:xlink="http://www.w3.org/1999/xlink">
    <!-- Generator: Sketch 43.2 (39069) - http://www.bohemiancoding.com/sketch -->
    <title>quote-close</title>
    <desc>Created with Sketch.</desc>
    <defs></defs>
    <g id="Style-Guide" stroke="none" stroke-width="1" fill="none" fill-rule="evenodd">
        <g transform="translate(-1156.000000, -1476.000000)" id="Typographic-Styles" fill="#087acc">
            <g transform="translate(139.000000, 332.000000)">
                <g id="article-info" transform="translate(643.000000, 994.000000)">
                    <g id="quote-close" transform="translate(374.000000, 150.000000)">
                        <path d="M0.48046875,21.0283203 C2.90821526,19.8466738 4.80956344,18.4716875 6.18457031,16.9033203 C7.55957719,15.3349531 8.35449111,13.4336049 8.56933594,11.1992188 L6.76464844,11.1992188 C5.43261053,11.1992188 4.34766044,11.0488296 3.50976562,10.7480469 C2.67187081,10.4472641 1.99511977,10.028323 1.47949219,9.49121094 C0.985349092,8.97558336 0.636231489,8.40625312 0.432128906,7.78320312 C0.228026323,7.16015313 0.125976562,6.51562833 0.125976562,5.84960938 C0.125976562,4.4746025 0.679193687,3.27148953 1.78564453,2.24023438 C2.89209538,1.20897922 4.19725811,0.693359375 5.70117188,0.693359375 C8.06446494,0.693359375 9.87987647,1.47753122 11.1474609,3.04589844 C12.4150454,4.61426565 13.0488281,6.78416583 13.0488281,9.55566406 C13.0488281,12.133802 11.958507,14.7333853 9.77783203,17.3544922 C7.59715707,19.975599 4.97071849,21.9628839 1.8984375,23.3164062 L0.48046875,21.0283203 Z M16.3681641,21.0283203 C18.7959106,19.8466738 20.6972588,18.4716875 22.0722656,16.9033203 C23.4472725,15.3349531 24.2421864,13.4336049 24.4570312,11.1992188 L22.6523438,11.1992188 C21.3203058,11.1992188 20.2353558,11.0488296 19.3974609,10.7480469 C18.5595661,10.4472641 17.8828151,10.028323 17.3671875,9.49121094 C16.8730444,8.97558336 16.5239268,8.40625312 16.3198242,7.78320312 C16.1157216,7.16015313 16.0136719,6.51562833 16.0136719,5.84960938 C16.0136719,4.4746025 16.566889,3.27148953 17.6733398,2.24023438 C18.7797907,1.20897922 20.0849534,0.693359375 21.5888672,0.693359375 C23.9521603,0.693359375 25.7675718,1.47753122 27.0351562,3.04589844 C28.3027407,4.61426565 28.9365234,6.78416583 28.9365234,9.55566406 C28.9365234,12.133802 27.8462023,14.7333853 25.6655273,17.3544922 C23.4848524,19.975599 20.8584138,21.9628839 17.7861328,23.3164062 L16.3681641,21.0283203 Z" id="”"></path>
                    </g>
                </g>
            </g>
        </g>
    </g>
</svg>

<svg width="29" height="24" viewBox="0 0 29 24" xmlns="http://www.w3.org/2000/svg"><title>quote-close</title><path d="M.48 21.028c2.428-1.181 4.33-2.556 5.705-4.125 1.375-1.568 2.17-3.47 2.384-5.704H6.765c-1.332 0-2.417-.15-3.255-.451-.838-.3-1.515-.72-2.03-1.257A4.465 4.465 0 0 1 .431 7.783 6.172 6.172 0 0 1 .126 5.85c0-1.375.553-2.579 1.66-3.61C2.892 1.21 4.197.693 5.7.693c2.363 0 4.179.785 5.446 2.353 1.268 1.568 1.902 3.738 1.902 6.51 0 2.578-1.09 5.177-3.271 7.798-2.18 2.622-4.807 4.609-7.88 5.962L.48 21.028zm15.888 0c2.428-1.181 4.33-2.556 5.704-4.125 1.375-1.568 2.17-3.47 2.385-5.704h-1.805c-1.332 0-2.417-.15-3.255-.451-.837-.3-1.514-.72-2.03-1.257a4.465 4.465 0 0 1-1.047-1.708 6.172 6.172 0 0 1-.306-1.933c0-1.375.553-2.579 1.66-3.61C18.78 1.21 20.084.693 21.588.693c2.363 0 4.179.785 5.446 2.353 1.268 1.568 1.902 3.738 1.902 6.51 0 2.578-1.09 5.177-3.271 7.798-2.181 2.622-4.808 4.609-7.88 5.962l-1.418-2.288z" fill="#087acc" fill-rule="evenodd"/></svg>
